copytrade/img/icomoon/documents.svg

<svg width="24" height="24" viewBox="0 0 24 24" fill="none" xmlns="http://www.w3.org/2000/svg">
<path fill-rule="evenodd" clip-rule="evenodd" d="M5.6146 5.99451C5.95191 4.81395 7.03097 4 8.25879 4H15.7416C16.9695 4 18.0484 4.81394 18.3857 5.99451C18.3857 5.99452 18.3857 5.99451 18.3857 5.99451L19.9713 11.544C20.0851 11.9422 19.8545 12.3573 19.4562 12.4711C19.058 12.5849 18.6428 12.3543 18.5291 11.956L16.9435 6.40661C16.7901 5.86997 16.2997 5.5 15.7416 5.5H8.25879C7.7007 5.5 7.21021 5.86997 7.05689 6.4066C7.05689 6.4066 7.05689 6.4066 7.05689 6.4066L5.47134 11.956C5.35754 12.3543 4.94243 12.5849 4.54415 12.4711C4.14588 12.3574 3.91526 11.9422 4.02905 11.544L5.6146 5.99451Z" fill="#A6ACB7"/>
<path fill-rule="evenodd" clip-rule="evenodd" d="M4 11.75C4 11.3358 4.33579 11 4.75 11H9.17085C9.93867 11 10.494 11.5017 10.8091 11.9122C11.0846 12.271 11.5154 12.5 12 12.5C12.4846 12.5 12.9154 12.271 13.1909 11.9122M13.1909 11.9122C13.5059 11.5018 14.0613 11 14.8291 11H19.25C19.6642 11 20 11.3358 20 11.75V17.25C20 18.7688 18.7688 20 17.25 20H6.75C5.23122 20 4 18.7688 4 17.25V11.75" fill="#A6ACB7"/>
</svg>

<svg width="24" height="24" fill="none" xmlns="http://www.w3.org/2000/svg"><path fill-rule="evenodd" clip-rule="evenodd" d="M5.615 5.995A2.75 2.75 0 018.259 4h7.483a2.75 2.75 0 012.644 1.995l1.585 5.549a.75.75 0 11-1.442.412l-1.585-5.55a1.25 1.25 0 00-1.202-.906H8.259a1.25 1.25 0 00-1.202.907L5.47 11.956a.75.75 0 01-1.442-.412l1.586-5.55z" fill="#A6ACB7"/><path fill-rule="evenodd" clip-rule="evenodd" d="M4 11.75a.75.75 0 01.75-.75h4.42c.769 0 1.324.502 1.64.912a1.496 1.496 0 002.382 0m-.001 0c.315-.41.87-.912 1.638-.912h4.421a.75.75 0 01.75.75v5.5A2.75 2.75 0 0117.25 20H6.75A2.75 2.75 0 014 17.25v-5.5" fill="#A6ACB7"/></svg>
